public/svg/icon/pirl.svg

<svg xmlns="http://www.w3.org/2000/svg" xmlns:xlink="http://www.w3.org/1999/xlink" width="32" height="32" viewBox="0 0 32 32"><defs><linearGradient id="pirl-c" x1="50%" x2="50%" y1="0%" y2="100%"><stop offset="0%" stop-color="#FFF" stop-opacity=".5"/><stop offset="100%" stop-opacity=".5"/></linearGradient><circle id="pirl-b" cx="16" cy="15" r="15"/><filter id="pirl-a" width="111.7%" height="111.7%" x="-5.8%" y="-4.2%" filterUnits="objectBoundingBox"><feOffset dy=".5" in="SourceAlpha" result="shadowOffsetOuter1"/><feGaussianBlur in="shadowOffsetOuter1" result="shadowBlurOuter1" stdDeviation=".5"/><feComposite in="shadowBlurOuter1" in2="SourceAlpha" operator="out" result="shadowBlurOuter1"/><feColorMatrix in="shadowBlurOuter1" values="0 0 0 0 0 0 0 0 0 0 0 0 0 0 0 0 0 0 0.199473505 0"/></filter><path id="pirl-e" d="M11.5942262,15.1053754 C11.6800727,15.3629559 11.8072778,15.6054971 11.9714878,15.8230595 L9.47766312,13.3051162 C9.21821167,13.0437801 9.07245335,12.6893323 9.07245335,12.3197471 C9.07245335,11.950162 9.21821167,11.5957141 9.47766312,11.334378 L12.6230007,8.18819941 C12.6878123,8.14009552 12.7501322,8.08867542 12.8097148,8.03414169 C12.8397111,8.00674608 12.8701539,7.97987011 12.9010295,7.95352418 L15.4475477,5.40515686 C15.9883052,4.86377861 16.8619778,4.86512079 17.4010933,5.40815798 L25.7436371,13.8113059 C26.1359047,14.3683248 26.0721241,15.1291077 25.5926768,15.6119804 C25.1181718,16.0883411 24.3790897,16.1693952 23.8139272,15.8070535 L16.4436871,8.36726648 L16.4347487,8.35726274 L16.4109129,8.33125299 L12.4680678,12.2747302 L12.4084782,12.3257494 C12.406302,12.3279414 12.4037559,12.3303862 12.4008598,12.3330914 L16.2966995,16.2602232 C16.646199,16.6122617 16.7826941,17.125369 16.6547684,17.6062625 C16.5268427,18.087156 16.1539311,18.4627766 15.6765058,18.5916316 C15.1990806,18.7204866 14.6896739,18.583 14.3401743,18.2309615 L12.3439228,16.2202082 C12.3151211,16.1951989 12.2863195,16.1601858 12.2495726,16.1251726 L12.1582019,16.0331382 C12.0914276,15.9578432 12.0290831,15.8786784 11.9714878,15.7960494 L12.01618,15.8490692 L11.985392,15.8100546 C11.8178082,15.5971323 11.685973,15.3590716 11.5942262,15.1053754 Z M19.7396975,17.678465 L15.8388527,13.7492826 C15.5794013,13.4879465 15.4336429,13.1334986 15.4336429,12.7639135 C15.4336429,12.3943284 15.5794013,12.0398805 15.8388527,11.7785444 C16.0988305,11.5177381 16.4510181,11.3716401 16.817938,11.3723905 C17.1848579,11.373141 17.5364537,11.5206783 17.7953778,11.7825459 L19.7916294,13.7932991 C19.820431,13.8183085 19.8492327,13.8533216 19.8859796,13.8883347 L19.9773503,13.9803692 C20.0289918,14.0383961 20.0770833,14.0995317 20.1213585,14.1634378 C20.1285571,14.1722457 20.1356936,14.1810989 20.1427677,14.1899964 C20.1125072,14.1469116 20.0835472,14.107183 20.0568031,14.0714033 L22.6678206,16.6983874 C23.208214,17.2429349 23.208214,18.1255785 22.6678206,18.670126 L19.5195036,21.8183053 C19.4538798,21.8652668 19.3906847,21.9155798 19.3301663,21.969047 L16.7058814,24.5933449 C16.1659445,25.1355517 15.2922726,25.1355517 14.7523357,24.5933449 L6.27472223,16.046143 C5.84664183,15.4663092 5.9267803,14.6536156 6.45973277,14.1699296 C6.99268523,13.6862436 7.8034774,13.6903647 8.33155652,14.1794438 L15.7157009,21.6352368 L15.7412475,21.6656475 L19.6764228,17.7307741 L19.7340261,17.6837565 C19.7357233,17.6821325 19.7376162,17.6803697 19.7396975,17.678465 Z"/><filter id="pirl-d" width="117.5%" height="117.5%" x="-8.8%" y="-6.2%" filterUnits="objectBoundingBox"><feOffset dy=".5" in="SourceAlpha" result="shadowOffsetOuter1"/><feGaussianBlur in="shadowOffsetOuter1" result="shadowBlurOuter1" stdDeviation=".5"/><feColorMatrix in="shadowBlurOuter1" values="0 0 0 0 0 0 0 0 0 0 0 0 0 0 0 0 0 0 0.204257246 0"/></filter></defs><g fill="none" fill-rule="evenodd"><use fill="#000" filter="url(#pirl-a)" xlink:href="#pirl-b"/><use fill="#96B73D" xlink:href="#pirl-b"/><use fill="url(#pirl-c)" style="mix-blend-mode:soft-light" xlink:href="#pirl-b"/><circle cx="16" cy="15" r="14.5" stroke="#000" stroke-opacity=".097"/><g fill-rule="nonzero"><use fill="#000" filter="url(#pirl-d)" xlink:href="#pirl-e"/><use fill="#FFF" fill-rule="evenodd" xlink:href="#pirl-e"/></g></g></svg>

<svg xmlns="http://www.w3.org/2000/svg" xmlns:xlink="http://www.w3.org/1999/xlink" width="32" height="32" viewBox="0 0 32 32"><defs><filter id="a" width="111.7%" height="111.7%" x="-5.8%" y="-4.2%" filterUnits="objectBoundingBox"><feOffset dy=".5" in="SourceAlpha" result="shadowOffsetOuter1"/><feGaussianBlur in="shadowOffsetOuter1" result="shadowBlurOuter1" stdDeviation=".5"/><feComposite in="shadowBlurOuter1" in2="SourceAlpha" operator="out" result="shadowBlurOuter1"/><feColorMatrix in="shadowBlurOuter1" values="0 0 0 0 0 0 0 0 0 0 0 0 0 0 0 0 0 0 0.199473505 0"/></filter><filter id="d" width="117.5%" height="117.5%" x="-8.8%" y="-6.2%" filterUnits="objectBoundingBox"><feOffset dy=".5" in="SourceAlpha" result="shadowOffsetOuter1"/><feGaussianBlur in="shadowOffsetOuter1" result="shadowBlurOuter1" stdDeviation=".5"/><feColorMatrix in="shadowBlurOuter1" values="0 0 0 0 0 0 0 0 0 0 0 0 0 0 0 0 0 0 0.204257246 0"/></filter><linearGradient id="c" x1="50%" x2="50%" y1="0%" y2="100%"><stop offset="0%" stop-color="#FFF" stop-opacity=".5"/><stop offset="100%" stop-opacity=".5"/></linearGradient><circle id="b" cx="16" cy="15" r="15"/><path id="e" d="M11.594 15.105c.086.258.213.5.377.718l-2.493-2.518a1.399 1.399 0 010-1.97l3.145-3.147c.065-.048.127-.1.187-.154l.091-.08 2.547-2.549a1.376 1.376 0 011.953.003l8.343 8.403a1.408 1.408 0 01-.151 1.801 1.423 1.423 0 01-1.78.195l-7.37-7.44-.008-.01-.024-.026-3.943 3.944-.06.05a.286.286 0 01-.007.008l3.896 3.927a1.4 1.4 0 01.358 1.346 1.39 1.39 0 01-.978.986 1.377 1.377 0 01-1.337-.361l-1.996-2.01c-.029-.026-.058-.06-.094-.096l-.092-.092a2.586 2.586 0 01-.187-.237l.045.053-.03-.039a2.531 2.531 0 01-.392-.705zm8.146 2.573l-3.901-3.929a1.399 1.399 0 010-1.97 1.378 1.378 0 011.956.004l1.997 2.01c.028.025.057.06.094.095l.091.092c.052.058.1.12.144.183l.022.027a4.957 4.957 0 00-.086-.119l2.61 2.627a1.4 1.4 0 010 1.972l-3.147 3.148a2.362 2.362 0 00-.19.151l-2.624 2.624a1.376 1.376 0 01-1.954 0l-8.477-8.547a1.408 1.408 0 01.185-1.876 1.383 1.383 0 011.872.01l7.384 7.455.025.03 3.935-3.934.058-.047a.352.352 0 01.006-.006z"/></defs><g fill="none" fill-rule="evenodd"><use fill="#000" filter="url(#a)" xlink:href="#b"/><use fill="#96B73D" xlink:href="#b"/><use fill="url(#c)" style="mix-blend-mode:soft-light" xlink:href="#b"/><circle cx="16" cy="15" r="14.5" stroke="#000" stroke-opacity=".097"/><g fill-rule="nonzero"><use fill="#000" filter="url(#d)" xlink:href="#e"/><use fill="#FFF" fill-rule="evenodd" xlink:href="#e"/></g></g></svg>
